22x22/apps/io.sourceforge.Pixelitor.svg

<svg xmlns="http://www.w3.org/2000/svg" width="22" height="22" version="1.1">
 <path style="opacity:0.2" d="M 11,1.5 A 6.5,6.5 0 0 0 4.5,8 6.5,6.5 0 0 0 4.508789,8.2314455 6.5,6.5 0 0 0 1,14 6.5,6.5 0 0 0 7.5,20.5 6.5,6.5 0 0 0 11.006836,19.472656 6.5,6.5 0 0 0 14.5,20.5 6.5,6.5 0 0 0 21,14 6.5,6.5 0 0 0 17.488281,8.234375 6.5,6.5 0 0 0 17.5,8 6.5,6.5 0 0 0 11,1.5 Z"/>
 <circle style="fill:#394dbb" cx="14.5" cy="13.5" r="6.5"/>
 <circle style="fill:#ee4034" cx="11" cy="7.5" r="6.5"/>
 <circle style="fill:#49ac36" cx="7.5" cy="13.5" r="6.5"/>
 <path style="fill:#d971e1" d="m 14.5,7 a 6.5,6.5 0 0 0 -3.496094,1.033203 6.5,6.5 0 0 1 2.987305,5.227539 6.5,6.5 0 0 0 3.49707,-5.526367 A 6.5,6.5 0 0 0 14.5,7 Z"/>
 <path style="fill:#ffe717" d="M 7.5,7 A 6.5,6.5 0 0 0 4.508789,7.7314455 6.5,6.5 0 0 0 8.011719,13.260742 6.5,6.5 0 0 1 10.991211,8.0283205 6.5,6.5 0 0 0 7.5,7 Z"/>
 <path style="fill:#f4f4f7" d="M 10.993164,8.027344 A 6.5,6.5 0 0 0 8.011719,13.265625 6.5,6.5 0 0 0 11,14 6.5,6.5 0 0 0 13.988281,13.270508 6.5,6.5 0 0 0 10.993164,8.027344 Z"/>
 <path style="fill:#36c8ff" d="M 8.011719,13.265625 A 6.5,6.5 0 0 0 8,13.5 6.5,6.5 0 0 0 11.006836,18.972656 6.5,6.5 0 0 0 14,13.5 6.5,6.5 0 0 0 13.988281,13.270508 6.5,6.5 0 0 1 11,14 6.5,6.5 0 0 1 8.011719,13.265625 Z"/>
 <path style="opacity:0.2;fill:#f4f4f7" d="M 11,1 A 6.5,6.5 0 0 0 4.5,7.5 6.5,6.5 0 0 0 4.510742,7.790039 6.5,6.5 0 0 1 11,1.5 6.5,6.5 0 0 1 17.489258,7.709961 6.5,6.5 0 0 0 17.5,7.5 6.5,6.5 0 0 0 11,1 Z"/>
</svg>

<svg xmlns="http://www.w3.org/2000/svg" width="22" height="22"><path style="opacity:.2" d="M11 1.5A6.5 6.5 0 0 0 4.5 8a6.5 6.5 0 0 0 .009.231A6.5 6.5 0 0 0 1 14a6.5 6.5 0 0 0 6.5 6.5 6.5 6.5 0 0 0 3.507-1.027A6.5 6.5 0 0 0 14.5 20.5 6.5 6.5 0 0 0 21 14a6.5 6.5 0 0 0-3.512-5.766A6.5 6.5 0 0 0 17.5 8 6.5 6.5 0 0 0 11 1.5z"/><circle style="fill:#394dbb" cx="14.5" cy="13.5" r="6.5"/><circle style="fill:#ee4034" cx="11" cy="7.5" r="6.5"/><circle style="fill:#49ac36" cx="7.5" cy="13.5" r="6.5"/><path style="fill:#d971e1" d="M14.5 7a6.5 6.5 0 0 0-3.496 1.033 6.5 6.5 0 0 1 2.987 5.228 6.5 6.5 0 0 0 3.497-5.527A6.5 6.5 0 0 0 14.5 7z"/><path style="fill:#ffe717" d="M7.5 7a6.5 6.5 0 0 0-2.991.731 6.5 6.5 0 0 0 3.503 5.53 6.5 6.5 0 0 1 2.98-5.233A6.5 6.5 0 0 0 7.5 7z"/><path style="fill:#f4f4f7" d="M10.993 8.027a6.5 6.5 0 0 0-2.981 5.239A6.5 6.5 0 0 0 11 14a6.5 6.5 0 0 0 2.988-.73 6.5 6.5 0 0 0-2.995-5.243z"/><path style="fill:#36c8ff" d="M8.012 13.266A6.5 6.5 0 0 0 8 13.5a6.5 6.5 0 0 0 3.007 5.473A6.5 6.5 0 0 0 14 13.5a6.5 6.5 0 0 0-.012-.23A6.5 6.5 0 0 1 11 14a6.5 6.5 0 0 1-2.988-.734z"/><path style="opacity:.2;fill:#f4f4f7" d="M11 1a6.5 6.5 0 0 0-6.5 6.5 6.5 6.5 0 0 0 .01.29A6.5 6.5 0 0 1 11 1.5a6.5 6.5 0 0 1 6.49 6.21 6.5 6.5 0 0 0 .01-.21A6.5 6.5 0 0 0 11 1z"/></svg>
